X:1     %Music
T:The First of May
B: Journal of the English Folk Dance and Song Society, Dec 1959
S:William Kimber, May 1909
Z:Cecil Sharp
F:http://www.folkinfo.org/songs
M:4/4     %Meter
L:1/8     %
K:C
d2 |g2 d2 ce dc |Bc G2 ce dc |Bd G2 c2 A2 |B2 G2 A2 d2 |
g2 d2 ce dc |Bd G2 ce dc |Bd G2 Ac BA |G2 F2 G4 |
d3/2e/ f3/2g/ a4 |d3/2e/ f3/2g/ a4 |d3/2e/ f3/2g/ a3/2g/ a3/2b/ |ag fe d2 B2 |
e2 c2 e2 g2 |dB GB d2 Bc |dg fe dB cA |G2 F2 G2 |]